X:1
T:GAVOTTE GLAZIK (gavotte de Quimper)
C:traditionnel breton
I:Skol al louarn
Q:1/4=153
M:4/4
L:1/8
K:G
|: B2 B2 AB c2 | Bc dc BA BG | B2 B2 AB c2 | Bc dc BA G2 :|
|: GB GB dc/B/ A2 | AB cd B2 B2 | GB GB dc/B/ A2 | FG AB G2 G2 :|
|: d2 Bd cB AG | d2 Bd cB A2 :|
|: G2 AB (3:2:1c(3:2:1B(3:2:1A d2 | G2 FG AB A2 | G2 AB (3:2:1c(3:2:1B(3:2:1A d2 |G2 FG AF G2 :|
